src/lib/packages/icons/src/assets/line/facebook-f.svg

<svg xmlns="http://www.w3.org/2000/svg" width="24" height="24" fill="none"><path fill="currentColor" d="M15.58 6.74H17c.41 0 .75-.34.75-.75V3.22c0-.37-.26-.68-.62-.74-.05 0-1.37-.23-2.65-.23-3.09 0-5.01 1.97-5.01 5.13v1.73H8c-.41 0-.75.34-.75.75v3.26c0 .41.34.75.75.75h1.47v7.12c0 .41.34.75.75.75h3.52c.41 0 .75-.34.75-.75v-7.12h1.88c.37 0 .69-.27.74-.64l.5-3.26a.754.754 0 0 0-.17-.6.765.765 0 0 0-.57-.26h-2.38V7.75c0-.71.33-1.01 1.09-1.01Zm-1.84 3.87h2.25l-.27 1.76h-1.98c-.41 0-.75.34-.75.75v7.12h-2.02v-7.12c0-.41-.34-.75-.75-.75H8.75v-1.76h1.47c.41 0 .75-.34.75-.75V7.38c0-2.31 1.28-3.63 3.51-3.63.64 0 1.31.06 1.77.12v1.37h-.67c-1.6 0-2.59.96-2.59 2.51v2.11c0 .41.34.75.75.75Z"/></svg>

<svg width="24" height="24" viewBox="0 0 24 24" fill="none" xmlns="http://www.w3.org/2000/svg">
<path d="M15.58 6.74001H17C17.41 6.74001 17.75 6.40001 17.75 5.99001V3.22C17.75 2.85 17.49 2.54 17.13 2.48C17.08 2.48 15.76 2.25 14.48 2.25C11.39 2.25 9.47 4.22 9.47 7.38V9.11H8C7.59 9.11 7.25 9.45 7.25 9.86V13.12C7.25 13.53 7.59 13.87 8 13.87H9.47V20.99C9.47 21.4 9.81 21.74 10.22 21.74H13.74C14.15 21.74 14.49 21.4 14.49 20.99V13.87H16.37C16.74 13.87 17.06 13.6 17.11 13.23L17.61 9.97C17.64 9.75 17.58 9.52999 17.44 9.37C17.3 9.21 17.09 9.11 16.87 9.11H14.49V7.75C14.49 7.04 14.82 6.74001 15.58 6.74001ZM13.74 10.61H15.99L15.72 12.37H13.74C13.33 12.37 12.99 12.71 12.99 13.12V20.24H10.97V13.12C10.97 12.71 10.63 12.37 10.22 12.37H8.75V10.61H10.22C10.63 10.61 10.97 10.27 10.97 9.86V7.38C10.97 5.07 12.25 3.75 14.48 3.75C15.12 3.75 15.79 3.81 16.25 3.87V5.24001H15.58C13.98 5.24001 12.99 6.2 12.99 7.75V9.86C12.99 10.27 13.33 10.61 13.74 10.61Z" fill="currentColor"/>
</svg>
